Otagle3/Assets/ikonySvG/WyswietlOknoPodgladuGrafiki.svg

<?xml version="1.0" encoding="UTF-8" standalone="no"?>
<svg
   xmlns:dc="http://purl.org/dc/elements/1.1/"
   xmlns:cc="http://creativecommons.org/ns#"
   xmlns:rdf="http://www.w3.org/1999/02/22-rdf-syntax-ns#"
   xmlns:svg="http://www.w3.org/2000/svg"
   xmlns="http://www.w3.org/2000/svg"
   id="svg47"
   version="1.1"
   viewBox="0 0 52.758294 52.758296"
   height="199.40143"
   width="199.40143">
  <defs
     id="defs42">
    <pattern
       id="EMFhbasepattern"
       patternUnits="userSpaceOnUse"
       width="6"
       height="6"
       x="0"
       y="0" />
  </defs>
  <metadata
     id="metadata45">
    <rdf:RDF>
      <cc:Work
         rdf:about="">
        <dc:format>image/svg+xml</dc:format>
        <dc:type
           rdf:resource="http://purl.org/dc/dcmitype/StillImage" />
        <dc:title></dc:title>
      </cc:Work>
    </rdf:RDF>
  </metadata>
  <g
     id="g8556"
     transform="translate(49.836509,-375.23204)">
    <g
       id="g5305">
      <text
         id="text898-7-3-6-8-3-3-0-66-7-8-8-0-8-3-4-2-6-22-3-3-4-7-0-2-6-2"
         y="425.61624"
         x="-23.21401"
         style="font-size:6.3499999px;line-height:0.94999999;font-family:voestalpine;-inkscape-font-specification:voestalpine;text-align:center;letter-spacing:0px;word-spacing:0px;text-anchor:middle;fill:#ffffff;fill-opacity:1;stroke-width:0.26458299"
         xml:space="preserve"><tspan
           style="font-size:6.3499999px;text-align:center;text-anchor:middle;fill:#ffffff;fill-opacity:1;stroke-width:0.26458299"
           y="425.61624"
           x="-23.21401"
           id="tspan3280-8-2-3-8">Pokaż nagłówek</tspan></text>
      <g
         style="fill:#ffffff;fill-opacity:1;stroke:#ffffff;stroke-opacity:1"
         id="g3425-7-6"
         transform="matrix(0.43424404,0,0,-0.43424404,-44.80073,415.59384)">
        <rect
           id="rect3393-7-1"
           height="2"
           width="13.89"
           y="68.667"
           x="17.409"
           style="fill:#ffffff;fill-opacity:1;stroke:#ffffff;stroke-opacity:1" />
        <path
           id="path3395-1-7"
           d="M 85.235,77.833 H 14.106 c -2.998,0 -5.436,-2.438 -5.436,-5.436 V 23.27 c 0,-2.998 2.438,-5.436 5.436,-5.436 h 71.129 c 2.998,0 5.436,2.438 5.436,5.436 v 49.128 c -0.001,2.998 -2.438,5.435 -5.436,5.435 z m -71.129,-58 c -1.895,0 -3.436,1.541 -3.436,3.437 v 49.128 c 0,1.895 1.541,3.436 3.436,3.436 h 71.129 c 1.895,0 3.436,-1.541 3.436,-3.436 V 23.27 c 0,-1.896 -1.541,-3.437 -3.436,-3.437 z"
           style="fill:#ffffff;fill-opacity:1;stroke:#ffffff;stroke-opacity:1" />
        <rect
           id="rect3397-6-6"
           height="2"
           width="13.89"
           y="68.667"
           x="42.648998"
           style="fill:#ffffff;fill-opacity:1;stroke:#ffffff;stroke-opacity:1" />
        <rect
           id="rect3399-8-5"
           height="2"
           width="13.89"
           y="68.667"
           x="67.704002"
           style="fill:#ffffff;fill-opacity:1;stroke:#ffffff;stroke-opacity:1" />
        <rect
           id="rect3401-4-7"
           height="2"
           width="13.89"
           y="62.667"
           x="17.500999"
           style="fill:#ffffff;fill-opacity:1;stroke:#ffffff;stroke-opacity:1" />
        <rect
           id="rect3403-9-4"
           height="2"
           width="13.89"
           y="62.667"
           x="42.742001"
           style="fill:#ffffff;fill-opacity:1;stroke:#ffffff;stroke-opacity:1" />
        <rect
           id="rect3405-2-5"
           height="2"
           width="13.89"
           y="62.667"
           x="67.795998"
           style="fill:#ffffff;fill-opacity:1;stroke:#ffffff;stroke-opacity:1" />
        <rect
           id="rect3407-0-9"
           height="2"
           width="64.139"
           y="56.667"
           x="17.500999"
           style="fill:#ffffff;fill-opacity:1;stroke:#ffffff;stroke-opacity:1" />
      </g>
      <g
         id="g1129"
         transform="translate(-207.1817,183.12868)">
        <rect
           style="fill:#87deaa;fill-opacity:1;stroke:#000000;stroke-width:0.28429499;stroke-linecap:round;stroke-miterlimit:4;stroke-dasharray:none;stroke-opacity:1;paint-order:fill markers stroke"
           id="rect833-2-8-6-2-6-4-8-1-7-4-6-9-4-5-2-1-0-8-7-5"
           width="52.632374"
           height="52.63237"
           x="157.56923"
           y="192.32553" />
        <text
           xml:space="preserve"
           style="font-size:6.3499999px;line-height:1.04999995;font-family:voestalpine;-inkscape-font-specification:voestalpine;text-align:end;letter-spacing:0px;word-spacing:0px;text-anchor:end;stroke-width:0.26458299"
           x="183.99501"
           y="228.92116"
           id="text837-2-5-3-5-4-2-1-6-9-68-0-7-6-7-4-4-4-2-0-6"><tspan
             id="tspan4116-7-2-8"
             x="183.99501"
             y="228.92116"
             style="font-size:6.3499999px;text-align:center;text-anchor:middle;stroke-width:0.26458299">Wyświetl okno</tspan><tspan
             x="183.99501"
             y="235.58865"
             style="font-size:6.3499999px;text-align:center;text-anchor:middle;stroke-width:0.26458299"
             id="tspan4421">podglądu</tspan><tspan
             id="tspan4310-4"
             x="183.99501"
             y="242.25616"
             style="font-size:6.3499999px;text-align:center;text-anchor:middle;stroke-width:0.26458299">grafiki</tspan></text>
        <g
           style="fill:#000000"
           id="g4492"
           transform="matrix(0.58923457,0,0,0.58923457,168.56532,193.70074)">
          <g
             id="g4463">
            <g
               id="g4431">
              <path
                 id="path4429"
                 d="M 49,41.5 H 3 C 2.7236328,41.5 2.5,41.276367 2.5,41 V 3 C 2.5,2.7236328 2.7236328,2.5 3,2.5 h 46 c 0.276367,0 0.5,0.2236328 0.5,0.5 v 38 c 0,0.276367 -0.223633,0.5 -0.5,0.5 z m -45.5,-1 h 45 v -37 h -45 z" />
            </g>
            <g
               id="g4435">
              <path
                 id="path4433"
                 d="M 49,49.5 H 3 C 2.7236328,49.5 2.5,49.276367 2.5,49 v -8 c 0,-0.276367 0.2236328,-0.5 0.5,-0.5 h 46 c 0.276367,0 0.5,0.223633 0.5,0.5 v 8 c 0,0.276367 -0.223633,0.5 -0.5,0.5 z m -45.5,-1 h 45 v -7 h -45 z" />
            </g>
            <g
               id="g4439">
              <path
                 id="path4437"
                 d="M 47.195312,41.5 H 4.8046875 C 4.6367187,41.5 4.4804687,41.41602 4.3876953,41.276367 4.2949223,41.135742 4.2792969,40.958984 4.3447263,40.804687 L 13.942383,18.206055 c 0.07617,-0.180664 0.250976,-0.298828 0.446289,-0.304688 0.178711,-0.01855 0.375977,0.103516 0.462891,0.280274 l 6.550781,13.375976 3.706054,-7.567383 c 0.167969,-0.34375 0.730469,-0.34375 0.898438,0 l 4.148437,8.470703 6.993165,-14.279296 c 0.08594,-0.176758 0.251953,-0.297852 0.46289,-0.280274 0.195313,0.0059 0.370117,0.124024 0.446289,0.304688 l 9.597657,22.598632 c 0.06543,0.154297 0.0498,0.331055 -0.04297,0.47168 C 47.519531,41.416016 47.363281,41.5 47.195312,41.5 Z M 5.5605469,40.5 H 46.439453 L 37.56543,19.604492 30.604492,33.817383 c -0.167969,0.34375 -0.730469,0.34375 -0.898437,0 l -4.148438,-8.470703 -3.706054,7.567382 c -0.167969,0.34375 -0.730469,0.34375 -0.898438,0 L 14.43457,19.604492 Z" />
            </g>
            <g
               id="g4443">
              <path
                 id="path4441"
                 d="m 25.100586,18.395508 c -2.481445,0 -4.5,-2.018555 -4.5,-4.5 0,-2.481445 2.018555,-4.5000002 4.5,-4.5000002 2.481445,0 4.5,2.0185552 4.5,4.5000002 0,2.481445 -2.018555,4.5 -4.5,4.5 z m 0,-8 c -1.929688,0 -3.5,1.570312 -3.5,3.5 0,1.929687 1.570312,3.5 3.5,3.5 1.929687,0 3.5,-1.570313 3.5,-3.5 0,-1.929688 -1.570313,-3.5 -3.5,-3.5 z" />
            </g>
            <g
               id="g4461">
              <g
                 id="g4447">
                <rect
                   id="rect4445"
                   height="1"
                   width="2"
                   y="44.5"
                   x="19" />
              </g>
              <g
                 id="g4451">
                <rect
                   id="rect4449"
                   height="1"
                   width="2"
                   y="44.5"
                   x="23" />
              </g>
              <g
                 id="g4455">
                <rect
                   id="rect4453"
                   height="1"
                   width="2"
                   y="44.5"
                   x="27" />
              </g>
              <g
                 id="g4459">
                <rect
                   id="rect4457"
                   height="1"
                   width="2"
                   y="44.5"
                   x="31" />
              </g>
            </g>
          </g>
        </g>
      </g>
    </g>
  </g>
</svg>

<svg id="SVGRoot" width="208" height="208" version="1.1" viewBox="0 0 208 208" xmlns="http://www.w3.org/2000/svg">
 <g transform="translate(0,7)">
  <g transform="matrix(3.7795 0 0 3.7795 10.171 -6.7758)">
   <g transform="translate(-1.0884 -121.69)">
    <g transform="translate(1.6608 -59.209)">
     <g transform="translate(-.6443 -59.335)">
      <g transform="translate(-1396.8 269.89)">
       <g transform="translate(-57.972 -.024822)">
        <g transform="translate(1658.1 73.867)">
         <g transform="translate(-203.03 -103.33)">
          <flowRoot transform="matrix(.26458 0 0 .26458 -2.875 1.091)" fill="#000000" font-family="sans-serif" font-size="40px" letter-spacing="0px" word-spacing="0px" style="line-height:1.25" xml:space="preserve"><flowRegion><rect x="-85.582" y="-60.812" width="342.33" height="293.65"/></flowRegion><flowPara/></flowRoot>
          <g transform="translate(-1039.4 318.88)">
           <flowRoot transform="matrix(.26458 0 0 .26458 1036.5 -317.79)" fill="#000000" font-family="sans-serif" font-size="40px" letter-spacing="0px" word-spacing="0px" style="line-height:1.25" xml:space="preserve"><flowRegion><rect x="-105.21" y="-13.703" width="562.17" height="513.49"/></flowRegion><flowPara/></flowRoot>
           <g transform="translate(-66.134 .039287)">
            <g transform="translate(-66.173 .043409)">
             <flowRoot transform="matrix(.26458 0 0 .26458 1168.8 -317.87)" fill="#000000" font-family="sans-serif" font-size="40px" letter-spacing="0px" word-spacing="0px" style="line-height:1.25" xml:space="preserve"><flowRegion><rect x="-114.63" y="-91.434" width="675.23" height="522.91"/></flowRegion><flowPara/></flowRoot>
             <g transform="translate(-66.2 -.040316)">
              <g transform="translate(-65.918 -.60254)">
               <g transform="translate(-66.6 .14883)">
                <flowRoot fill="black" font-family="sans-serif" font-size="40px" letter-spacing="0px" word-spacing="0px" style="line-height:1.25" xml:space="preserve"><flowRegion><rect x="-24.34" y="-19.695" width="252.04" height="245.75"/></flowRegion><flowPara/></flowRoot>
                <g transform="translate(-68.678 -.48293)">
                 <flowRoot fill="black" font-family="sans-serif" font-size="40px" letter-spacing="0px" word-spacing="0px" style="line-height:1.25" xml:space="preserve"><flowRegion><rect x="-65.168" y="-26.762" width="382.37" height="335.26"/></flowRegion><flowPara/></flowRoot>
                 <g transform="translate(-63.347 .4912)">
                  <g transform="translate(529.82 -.18087)">
                   <g transform="translate(794.67 .06923)">
                    <g transform="translate(-198.36 .17569)">
                     <g transform="translate(-530.68 .043413)">
                      <g transform="translate(912.04 -.041317)">
                       <g transform="translate(132.58 -.39794)">
                        <g transform="translate(-580.62 .35866)">
                         <g transform="translate(-264.6 -.1571)">
                          <g transform="translate(463.55 .097138)">
                           <g transform="translate(-397.36 .059959)">
                            <g transform="translate(66.026 -.30592)">
                             <g transform="translate(-264.69 -.093008)">
                              <g transform="translate(734.89 179.33)">
                               <g transform="translate(-205.07 -178.97)">
                                <g transform="translate(-1081.1 -686.85)">
                                 <flowRoot fill="black" font-family="sans-serif" font-size="40px" letter-spacing="0px" word-spacing="0px" style="line-height:1.25" xml:space="preserve"><flowRegion><rect x="21" y="-71" width="223" height="308"/></flowRegion><flowPara/></flowRoot>
                                 <g transform="translate(-112.28 .55746)">
                                  <g transform="translate(-396.77 -.26462)">
                                   <g transform="translate(167.68 .26462)">
                                    <g transform="translate(457.35 -.55746)">
                                     <g transform="translate(452.66 .26458)">
                                      <g transform="translate(-200.71 456.02)">
                                       <g transform="translate(982.25 -278.99)">
                                        <flowRoot fill="black" font-family="sans-serif" font-size="40px" letter-spacing="0px" word-spacing="0px" style="line-height:1.25" xml:space="preserve"><flowRegion><rect x="-78" y="-47" width="652" height="503"/></flowRegion><flowPara/></flowRoot>
                                        <g transform="translate(60.987 1.1523e-6)">
                                         <g transform="translate(57.841)">
                                          <g transform="translate(-236.4)">
                                           <rect x="157.57" y="192.33" width="52.632" height="52.632" fill="#87deaa" stroke="#000" stroke-linecap="round" stroke-width=".28429" style="paint-order:fill markers stroke"/>
                                           <text x="183.99501" y="229.42201" font-family="sans-serif" font-size="4.9389px" letter-spacing="0px" stroke-width=".26458" text-align="end" text-anchor="middle" word-spacing="0px" style="line-height:1.04999995" xml:space="preserve"><tspan x="183.99501" y="229.42201" text-align="center">Wyświetl okno</tspan><tspan x="183.99501" y="236.08951" text-align="center">podglądu</tspan><tspan x="183.99501" y="242.75702" text-align="center">grafiki</tspan></text>
                                           <g transform="matrix(.58923 0 0 .58923 168.57 193.7)">
                                            <path d="m49 41.5h-46c-.27637 0-.5-.22363-.5-.5v-38c0-.27637.22363-.5.5-.5h46c.27637 0 .5.22363.5.5v38c0 .27637-.22363.5-.5.5zm-45.5-1h45v-37h-45z"/>
                                            <path d="m49 49.5h-46c-.27637 0-.5-.22363-.5-.5v-8c0-.27637.22363-.5.5-.5h46c.27637 0 .5.22363.5.5v8c0 .27637-.22363.5-.5.5zm-45.5-1h45v-7h-45z"/>
                                            <path d="m47.195 41.5h-42.391c-.16797 0-.32422-.08398-.41699-.22363-.092773-.14062-.1084-.31738-.042969-.47168l9.5977-22.599c.07617-.18066.25098-.29883.44629-.30469.17871-.01855.37598.10352.46289.28027l6.5508 13.376 3.7061-7.5674c.16797-.34375.73047-.34375.89844 0l4.1484 8.4707 6.9932-14.279c.08594-.17676.25195-.29785.46289-.28027.19531.0059.37012.12402.44629.30469l9.5977 22.599c.06543.1543.0498.33106-.04297.47168-.092773.13965-.24902.22363-.41699.22363zm-41.635-1h40.879l-8.874-20.896-6.9609 14.213c-.16797.34375-.73047.34375-.89844 0l-4.1484-8.4707-3.7061 7.5674c-.16797.34375-.73047.34375-.89844 0l-6.5186-13.31z"/>
                                            <path d="m25.101 18.396c-2.4814 0-4.5-2.0186-4.5-4.5s2.0186-4.5 4.5-4.5 4.5 2.0186 4.5 4.5-2.0186 4.5-4.5 4.5zm0-8c-1.9297 0-3.5 1.5703-3.5 3.5 0 1.9297 1.5703 3.5 3.5 3.5 1.9297 0 3.5-1.5703 3.5-3.5 0-1.9297-1.5703-3.5-3.5-3.5z"/>
                                            <rect x="19" y="44.5" width="2" height="1"/>
                                            <rect x="23" y="44.5" width="2" height="1"/>
                                            <rect x="27" y="44.5" width="2" height="1"/>
                                            <rect x="31" y="44.5" width="2" height="1"/>
                                           </g>
                                          </g>
                                         </g>
                                        </g>
                                       </g>
                                      </g>
                                     </g>
                                    </g>
                                   </g>
                                  </g>
                                 </g>
                                </g>
                               </g>
                              </g>
                             </g>
                            </g>
                           </g>
                          </g>
                         </g>
                        </g>
                       </g>
                      </g>
                     </g>
                    </g>
                   </g>
                  </g>
                 </g>
                </g>
               </g>
              </g>
             </g>
            </g>
           </g>
          </g>
         </g>
        </g>
       </g>
      </g>
     </g>
    </g>
   </g>
  </g>
 </g>
</svg>
